!!!OTL: ES RITT EIN KOENIG WOHL UEBER DEN RHEIN
!!!ARE: Europa, Mitteleuropa, Deutschland, Brandenburg
!!!SCT: E0002A
!!!YEM: Copyright 1995, estate of Helmut Schaffrath.
**kern
*ICvox
*Ivox
*M3/4
*k[b-e-]
*g:
{8d
8g
8a
=1
8b-
8b-
4a
12g
12g
12g
=2
4.dd}
{8dd
8cc
8a
=3
4dd
4cc
8b-
8cc
=4
4.a}
{8a
8a
8a
=5
4dd
8cc
8cc
8dd
8b-
=6
4.a}
{8b-
8g
8a
=7
8b-
8dd
8cc
8b-
8a
8b-
=8
4g
8r}
==
!!!AGN: Sage, Maerchen -, Zauber - Lied, Ballade ?
!!!ONB: ESAC (Essen Associative Code) Database: ERK1
!!!AMT: simple triple
!!!AIN: vox
!!!EED: Helmut Schaffrath
!!!EEV: 1.0
*-
